findly-builder/apps/searchassist/src/assets/icons/info_header.svg

<svg width="16" height="16" viewBox="0 0 16 16" fill="none" xmlns="http://www.w3.org/2000/svg">
<path d="M8 1C4.14243 1 1 4.14243 1 8C1 11.8576 4.14243 15 8 15C11.8576 15 15 11.8576 15 8C15 4.14243 11.8576 1 8 1ZM8 2.07692C11.277 2.07692 13.9231 4.72296 13.9231 8C13.9231 11.277 11.277 13.9231 8 13.9231C4.72296 13.9231 2.07692 11.277 2.07692 8C2.07692 4.72296 4.72296 2.07692 8 2.07692ZM7.46154 4.23077V5.30769H8.53846V4.23077H7.46154ZM7.46154 6.38462V11.7692H8.53846V6.38462H7.46154Z" fill="black"/>
</svg>

<svg width="16" height="16" fill="none" xmlns="http://www.w3.org/2000/svg"><path d="M8 1C4.142 1 1 4.142 1 8s3.142 7 7 7 7-3.142 7-7-3.142-7-7-7Zm0 1.077A5.916 5.916 0 0 1 13.923 8 5.916 5.916 0 0 1 8 13.923 5.916 5.916 0 0 1 2.077 8 5.916 5.916 0 0 1 8 2.077ZM7.462 4.23v1.077h1.076V4.23H7.462Zm0 2.154v5.384h1.076V6.385H7.462Z" fill="#000"/></svg>
